X:2036
T:If young men could swim 
C:George Moore, Balladoole
O:Isle of Man
S:Traditional
Z:Clague collection
B:Kiaull Vannin #36
N:Similar to 'Hares on the mountain' Child ballad 44.
M:3/4 
L:1/4 
Q:60 
K:D 
B|B E B|B2 B|A D A|F E E|E B A|B2 A|B e f|e/d/ B B/A/|
B e f|g f g|e d e|B A B/A/|G/F/ G/A/ B/A/|G/F/ G/A/ B/d/|e E B|E2|| 
